X: 1
T: Colonel Noel's Fancy
M:C
L:1/8
C: Miss Magdelina Stirling's Collection
Z: source from Highland Music Trust, chords by Gary Whaley
K:G
[|: "G"[dBG]>B GG|"C"edef g4|efge agfe|"G"edcB "D"B2 A2|"G"[dBG]>B GG|"C"edef g4|edef g4 |efgd efgd|"C"e2 "D"d2 "G"g4 :|]
[|"G" b2 ba g2 g2|"D"a2 af d4|"C" efge agfe|"G"edcB B2 A2| "G"b2 ba g2 g2|"D"a2 af d4|"C"efgd efgd|"C"e2 "D"f2 "G"g4 |
|"G" b2 ba g2 g2|"D"a2 af d4|"C" efge agfe|"G"edcB B2 A2|"G"[dBG]>B GG|"C"edef g4|"C"efgd efgd|"C"e2 "D"f2 "G"g4 |]
